16/panel/keyboard-battery-medium.svg

<svg width="16" height="16" version="1.1" xmlns="http://www.w3.org/2000/svg">
 <g fill="#ffffff">
  <path d="M10 .998c-.554 0-1 .446-1 1v13c0 .554.446 1 1 1h5c.554 0 1-.446 1-1v-13c0-.554-.446-1-1-1h-5zm0 3h1v1h-1v-1zm2 0h1v1h-1v-1zm2 1h1v7h-1v-7zm-4 1h1v1h-1v-1zm2 0h1v1h-1v-1zm-2 2h1v1h-1v-1zm2 0h1v1h-1v-1zm-2 2h1v1h-1v-1zm2 0h1v1h-1v-1zm-2 2h1v1h-1v-1zm2 0h1v1h-1v-1z" fill="#ffffff" fill-rule="evenodd"/>
 </g>
 <g transform="rotate(-90,6,10)" fill="#ffffff" fill-rule="evenodd">
  <path d="m1 4c-0.554 0-1 0.446-1 1v6c0 0.554 0.446 1 1 1h12c0.554 0 1-0.446 1-1v-6c0-0.554-0.446-1-1-1zm0 1h12v6h-12z" style="paint-order:normal"/>
  <path d="m15 6.5879v2.8242a1.5 1.5 0 0 0 1-1.4121 1.5 1.5 0 0 0-1-1.4121z" style="paint-order:normal"/>
  <rect x="2" y="6" width="6" height="4" ry="0" style="paint-order:normal"/>
 </g>
</svg>

<svg xmlns="http://www.w3.org/2000/svg" width="16" height="16" version="1.1">
 <defs>
  <style id="current-color-scheme" type="text/css">
   .ColorScheme-Text { color:#dfdfdf; } .ColorScheme-Highlight { color:#4285f4; } .ColorScheme-NeutralText { color:#ff9800; } .ColorScheme-PositiveText { color:#4caf50; } .ColorScheme-NegativeText { color:#f44336; }
  </style>
 </defs>
 <path style="opacity:0.3;fill:currentColor" class="ColorScheme-Text" d="M 2.5,1 C 2.223,1 2,1.22 2,1.5 V 2 H 0 V 2 14.5 C 0,14.78 0.223,15 0.5,15 H 6.5 C 6.777,15 7,14.78 7,14.5 V 2 H 6.5 5 V 1.5 C 5,1.23 4.777,1 4.5,1 Z"/>
 <path style="fill:currentColor" class="ColorScheme-Text" d="M 0,8 V 14.5 C 0,14.78 0.223,15 0.5,15 H 6.5 C 6.777,15 7,14.78 7,14.5 V 8 Z"/>
 <path style="fill:currentColor;fill-rule:evenodd" class="ColorScheme-Text" d="M 10,2 C 9.446,2 9,2.45 9,3 V 14 C 9,14.55 9.446,15 10,15 H 15 C 15.554,15 16,14.55 16,14 V 3 C 16,2.45 15.554,2 15,2 Z M 10,4 H 11 V 5 H 10 Z M 12,4 H 13 V 5 H 12 Z M 14,5 H 15 V 12 H 14 Z M 10,6 H 11 V 7 H 10 Z M 12,6 H 13 V 7 H 12 Z M 10,8 H 11 V 9 H 10 Z M 12,8 H 13 V 9 H 12 Z M 10,10 H 11 V 11 H 10 Z M 12,10 H 13 V 11 H 12 Z M 10,12 H 11 V 13 H 10 Z M 12,12 H 13 V 13 H 12 Z"/>
</svg>
